images/icons/linkedin-16.svg

<svg width="16" height="17" fill="none" xmlns="http://www.w3.org/2000/svg"><g clip-path="url(#clip0)"><path d="M15.3.5H.7c-.4 0-.7.3-.7.7v14.7c0 .3.3.6.7.6h14.7c.4 0 .7-.3.7-.7V1.2c-.1-.4-.4-.7-.8-.7zM4.7 14.1H2.4V6.5h2.4v7.6h-.1zM3.6 5.5c-.8 0-1.4-.7-1.4-1.4 0-.8.6-1.4 1.4-1.4.8 0 1.4.6 1.4 1.4-.1.7-.7 1.4-1.4 1.4zm10 8.6h-2.4v-3.7c0-.9 0-2-1.2-2s-1.4 1-1.4 2v3.8H6.2V6.5h2.3v1c.3-.6 1.1-1.2 2.2-1.2 2.4 0 2.8 1.6 2.8 3.6v4.2h.1z" fill="#37394F"/></g><defs><clipPath id="clip0"><path fill="#fff" transform="translate(0 .5)" d="M0 0h16v16H0z"/></clipPath></defs></svg>

<svg width="16" height="17" viewBox="0 0 16 17" fill="none" xmlns="http://www.w3.org/2000/svg">
<g clip-path="url(#clip0)">
<path d="M15.3 0.5H0.7C0.3 0.5 0 0.8 0 1.2V15.9C0 16.2 0.3 16.5 0.7 16.5H15.4C15.8 16.5 16.1 16.2 16.1 15.8V1.2C16 0.8 15.7 0.5 15.3 0.5ZM4.7 14.1H2.4V6.5H4.8V14.1H4.7ZM3.6 5.5C2.8 5.5 2.2 4.8 2.2 4.1C2.2 3.3 2.8 2.7 3.6 2.7C4.4 2.7 5 3.3 5 4.1C4.9 4.8 4.3 5.5 3.6 5.5ZM13.6 14.1H11.2V10.4C11.2 9.5 11.2 8.4 10 8.4C8.8 8.4 8.6 9.4 8.6 10.4V14.2H6.2V6.5H8.5V7.5C8.8 6.9 9.6 6.3 10.7 6.3C13.1 6.3 13.5 7.9 13.5 9.9V14.1H13.6Z" fill="#37394F"/>
</g>
<defs>
<clipPath id="clip0">
<rect width="16" height="16" fill="white" transform="translate(0 0.5)"/>
</clipPath>
</defs>
</svg>
